X: 1479
T: George Yerbury's Set Tune
B: australian traditional tunes wiki
M:2/4
L:1/8
R: Set Tune
Q: 1/4=100
K:D
V:1 
|:"D"fA de | fA de | f>e fg | ba fe | fA d>e | fA fA | "A7"eA fe |1 "D"d2 d>e:|2"D"d3z |]
|:"D"f2f>e | fA de | fg/f/ ed | "A7"e2-e2 | e2e>f | eA dc | "D"dA "A7"fe |1 dc BA:|2"D"d2dz |]
% abcbook-tune_id 6342d53a76da285b1e399c0b


% abcbook-boost 0
% abcbook-tablature 
% abcbook-transpose 
% abcbook-lastupdated 1665324367119
% abcbook-soundfonts 
% abcbook-repeats 1
% NFF Book 2022
% Bush Traditions recording played by Ray Mulligan

